X: 1
T: Stan Chapman's
R: jig
M: 6/8
L: 1/8
K: Amaj
~E3 EFA|~B3 Bce|fea fec|ecA BAF|
~E3 EFA|~B3 Bce|fea fec|ecA A3:|
e3 ece|~f3 fga|ecA ~B3|cAE Eaf|
e3 ece|~f3 fga|ecA ~B3|1cAA Aaf:|2cAA A3:|


Tune 324	Setting 13097

